src/assets/images/skills/javascript.svg

<?xml version="1.0" encoding="UTF-8" standalone="no"?>
<svg width="64px" height="64px" viewBox="0 0 64 64" version="1.1" xmlns="http://www.w3.org/2000/svg" xmlns:xlink="http://www.w3.org/1999/xlink">
    <defs></defs>
    <g id="Languages" stroke="none" stroke-width="1" fill="none" fill-rule="evenodd">
        <g id="icons/skills/id-248">
            <rect id="Rectangle-12" fill="#F9DB3D" x="7" y="7" width="50" height="50" rx="4"></rect>
            <path d="M35.406,46.132 L35.406,35.374 L31.952,35.374 L31.952,45.978 C31.952,46.2566681 31.9410001,46.5463318 31.919,46.847 C31.8969999,47.1476682 31.8310006,47.426332 31.721,47.683 C31.6109994,47.939668 31.4313346,48.1486659 31.182,48.31 C30.9326654,48.4713341 30.5806689,48.552 30.126,48.552 C29.7153313,48.552 29.381668,48.4860007 29.125,48.354 C28.868332,48.2219993 28.6666674,48.0423345 28.52,47.815 C28.3733326,47.5876655 28.270667,47.3126683 28.212,46.99 C28.153333,46.6673317 28.124,46.3153352 28.124,45.934 L28.124,45.23 L25,45.23 L25,46.594 C25,47.4593377 25.1466652,48.1963303 25.44,48.805 C25.7333348,49.4136697 26.1219976,49.9123314 26.606,50.301 C27.0900024,50.6896686 27.6399969,50.9756657 28.256,51.159 C28.8720031,51.3423343 29.5099967,51.434 30.17,51.434 C31.3433392,51.434 32.2746632,51.2543351 32.964,50.895 C33.6533368,50.5356649 34.1813315,50.088336 34.548,49.553 C34.9146685,49.017664 35.1493328,48.4420031 35.252,47.826 C35.3546672,47.2099969 35.406,46.6453359 35.406,46.132 L35.406,46.132 Z M40.796,45.868 L37.452,45.868 C37.4373333,46.8360048 37.6133315,47.6719965 37.98,48.376 C38.3466685,49.0800035 38.8416636,49.6593311 39.465,50.114 C40.0883364,50.5686689 40.8069959,50.9023323 41.621,51.115 C42.4350041,51.3276677 43.2746623,51.434 44.14,51.434 C45.210672,51.434 46.1529959,51.3093346 46.967,51.06 C47.7810041,50.8106654 48.4629973,50.4623356 49.013,50.015 C49.5630027,49.5676644 49.9773319,49.0360031 50.256,48.42 C50.5346681,47.8039969 50.674,47.1366703 50.674,46.418 C50.674,45.5379956 50.4870019,44.8156695 50.113,44.251 C49.7389981,43.6863305 49.2953359,43.235335 48.782,42.898 C48.2686641,42.560665 47.7516693,42.3150008 47.231,42.161 C46.7103307,42.0069992 46.3033348,41.900667 46.01,41.842 C45.0273284,41.5926654 44.2316697,41.3873341 43.623,41.226 C43.0143303,41.0646659 42.5376684,40.9033341 42.193,40.742 C41.8483316,40.5806659 41.6173339,40.4046676 41.5,40.214 C41.3826661,40.0233324 41.324,39.7740015 41.324,39.466 C41.324,39.128665 41.3973326,38.8500011 41.544,38.63 C41.6906674,38.4099989 41.8776655,38.2266674 42.105,38.08 C42.3323345,37.9333326 42.5853319,37.830667 42.864,37.772 C43.1426681,37.713333 43.4213319,37.684 43.7,37.684 C44.1253355,37.684 44.5176649,37.7206663 44.877,37.794 C45.2363351,37.8673337 45.5553319,37.9919991 45.834,38.168 C46.1126681,38.3440009 46.3363325,38.5859985 46.505,38.894 C46.6736675,39.2020015 46.7726665,39.5906643 46.802,40.06 L50.146,40.06 C50.146,39.1506621 49.9736684,38.3770032 49.629,37.739 C49.2843316,37.1009968 48.8186696,36.5766687 48.232,36.166 C47.6453304,35.7553313 46.9743371,35.4583343 46.219,35.275 C45.4636629,35.0916657 44.6753374,35 43.854,35 C43.1499965,35 42.4460035,35.0953324 41.742,35.286 C41.0379965,35.4766676 40.4073361,35.769998 39.85,36.166 C39.2926639,36.562002 38.8416684,37.056997 38.497,37.651 C38.1523316,38.245003 37.98,38.9453293 37.98,39.752 C37.98,40.4706703 38.1156653,41.0829975 38.387,41.589 C38.6583347,42.0950025 39.0139978,42.516665 39.454,42.854 C39.8940022,43.191335 40.3926639,43.4663323 40.95,43.679 C41.5073361,43.8916677 42.0793304,44.0713326 42.666,44.218 C43.2380029,44.3793341 43.8026639,44.5259993 44.36,44.658 C44.9173361,44.7900007 45.4159978,44.9439991 45.856,45.12 C46.2960022,45.2960009 46.6516653,45.5159987 46.923,45.78 C47.1943347,46.0440013 47.33,46.3886645 47.33,46.814 C47.33,47.210002 47.2273344,47.5363321 47.022,47.793 C46.8166656,48.0496679 46.5600015,48.2513326 46.252,48.398 C45.9439985,48.5446674 45.6140018,48.6436664 45.262,48.695 C44.9099982,48.7463336 44.5800015,48.772 44.272,48.772 C43.8173311,48.772 43.3773355,48.7170006 42.952,48.607 C42.5266645,48.4969994 42.1563349,48.3283345 41.841,48.101 C41.5256651,47.8736655 41.2726676,47.5766685 41.082,47.21 C40.8913324,46.8433315 40.796,46.3960026 40.796,45.868 L40.796,45.868 Z" id="JS" fill="#3A3C3E"></path>
        </g>
    </g>
</svg>

<svg xmlns="http://www.w3.org/2000/svg" width="64" height="64" fill-rule="evenodd" xmlns:v="https://vecta.io/nano"><rect fill="#f9db3d" x="7" y="7" width="50" height="50" rx="4"/><path d="M35.406 46.132V35.374h-3.454v10.604l-.033.87c-.022.3-.088.58-.198.836a1.39 1.39 0 0 1-.539.627c-.25.16-.6.242-1.056.242-.41 0-.744-.066-1-.198s-.458-.312-.605-.54-.25-.502-.308-.825-.088-.675-.088-1.056v-.704H25v1.364c0 .865.147 1.602.44 2.21a4.25 4.25 0 0 0 1.166 1.496c.484.39 1.034.675 1.65.858s1.254.275 1.914.275c1.173 0 2.105-.18 2.794-.54s1.217-.807 1.584-1.342.6-1.11.704-1.727.154-1.18.154-1.694h0zm5.4-.264h-3.344c-.015.968.16 1.804.528 2.508s.862 1.283 1.485 1.738 1.342.788 2.156 1 1.654.32 2.52.32c1.07 0 2.013-.125 2.827-.374s1.496-.598 2.046-1.045a4.35 4.35 0 0 0 1.243-1.595 4.8 4.8 0 0 0 .418-2.002c0-.88-.187-1.602-.56-2.167s-.818-1.016-1.33-1.353a5.85 5.85 0 0 0-1.551-.737l-1.22-.32-2.387-.616c-.61-.16-1.085-.323-1.43-.484s-.576-.337-.693-.528-.176-.44-.176-.748c0-.337.073-.616.22-.836a1.91 1.91 0 0 1 .561-.55c.227-.147.48-.25.76-.308a4.05 4.05 0 0 1 .836-.088 5.89 5.89 0 0 1 1.177.11c.36.073.678.198.957.374s.502.418.67.726.268.697.297 1.166h3.344c0-.91-.172-1.683-.517-2.32s-.8-1.162-1.397-1.573-1.258-.708-2.013-.89S44.675 35 43.854 35a8.05 8.05 0 0 0-2.112.286c-.704.19-1.335.484-1.892.88s-1.008.89-1.353 1.485-.517 1.294-.517 2.1c0 .72.136 1.33.407 1.837s.627.928 1.067 1.265.94.612 1.496.825a15.04 15.04 0 0 0 1.716.539l1.694.44a10.65 10.65 0 0 1 1.496.462c.44.176.796.396 1.067.66s.407.61.407 1.034c0 .396-.103.722-.308.98a2.16 2.16 0 0 1-.77.605c-.308.147-.638.246-1 .297a6.88 6.88 0 0 1-.99.077 5.25 5.25 0 0 1-1.32-.165c-.425-.1-.796-.28-1.11-.506a2.5 2.5 0 0 1-.759-.891c-.19-.367-.286-.814-.286-1.342h0z" fill="#3a3c3e"/></svg>
